gnome-shell/src/preview-close-symbolic.svg

<?xml version="1.0" encoding="UTF-8" standalone="no"?>
<svg
   xmlns:dc="http://purl.org/dc/elements/1.1/"
   xmlns:cc="http://creativecommons.org/ns#"
   xmlns:rdf="http://www.w3.org/1999/02/22-rdf-syntax-ns#"
   xmlns:svg="http://www.w3.org/2000/svg"
   xmlns="http://www.w3.org/2000/svg"
   xmlns:sodipodi="http://sodipodi.sourceforge.net/DTD/sodipodi-0.dtd"
   xmlns:inkscape="http://www.inkscape.org/namespaces/inkscape"
   width="24"
   height="24"
   viewBox="0 0 6.3499999 6.3500002"
   version="1.1"
   id="svg59656"
   sodipodi:docname="data_theme_window-close-24-symbolic.svg"
   inkscape:version="1.0.1 (3bc2e813f5, 2020-09-07)">
  <sodipodi:namedview
     pagecolor="#ffffff"
     bordercolor="#666666"
     borderopacity="1"
     objecttolerance="10"
     gridtolerance="10"
     guidetolerance="10"
     inkscape:pageopacity="0"
     inkscape:pageshadow="2"
     inkscape:window-width="1366"
     inkscape:window-height="704"
     id="namedview6"
     showgrid="false"
     inkscape:zoom="22.916667"
     inkscape:cx="12"
     inkscape:cy="12"
     inkscape:window-x="0"
     inkscape:window-y="27"
     inkscape:window-maximized="1"
     inkscape:current-layer="svg59656" />
  <defs
     id="defs59650" />
  <metadata
     id="metadata59653">
    <rdf:RDF>
      <cc:Work
         rdf:about="">
        <dc:format>image/svg+xml</dc:format>
        <dc:type
           rdf:resource="http://purl.org/dc/dcmitype/StillImage" />
        <dc:title />
      </cc:Work>
    </rdf:RDF>
  </metadata>
  <path
     d="M 1.9303969,1.5875 1.5875,1.9303969 1.6445847,1.9870934 2.8321031,3.175 1.644973,4.3629066 1.5878884,4.4196031 1.9307853,4.7625 1.9874816,4.7054152 3.175,3.5178969 4.3629066,4.7054152 4.4196031,4.7625 4.7625,4.4196031 4.7054152,4.3629066 3.5178969,3.175 4.7054152,1.9870934 4.7625,1.9303969 4.4196031,1.5875 4.3629066,1.6445848 3.175,2.8321031 1.9870932,1.644973 Z"
     fill="#808080"
     fill-rule="evenodd"
     font-family="sans-serif"
     font-weight="400"
     overflow="visible"
     style="font-variant-ligatures:normal;font-variant-position:normal;font-variant-caps:normal;font-variant-numeric:normal;font-variant-alternates:normal;font-feature-settings:normal;text-indent:0;text-decoration:none;text-decoration-line:none;text-decoration-style:solid;text-decoration-color:#000000;text-transform:none;text-orientation:mixed;shape-padding:0;isolation:auto;mix-blend-mode:normal;stroke-width:0.388331"
     white-space="normal"
     id="path2" />
</svg>

<svg width="24" height="24" version="1.1" viewBox="0 0 6.35 6.35" xmlns="http://www.w3.org/2000/svg">
 <path d="m1.9304 1.5875-0.3429 0.3429 0.057085 0.056696 1.1875 1.1879-1.1871 1.1879-0.057085 0.056696 0.3429 0.3429 0.056696-0.057085 1.1875-1.1875 1.1879 1.1875 0.056696 0.057085 0.3429-0.3429-0.057085-0.056696-1.1875-1.1879 1.1875-1.1879 0.057085-0.056696-0.3429-0.3429-0.056696 0.057085-1.1879 1.1875-1.1879-1.1871z" fill="#808080" fill-rule="evenodd" font-family="sans-serif" font-weight="400" overflow="visible" stroke-width=".38833" style="font-feature-settings:normal;font-variant-alternates:normal;font-variant-caps:normal;font-variant-ligatures:normal;font-variant-numeric:normal;font-variant-position:normal;isolation:auto;mix-blend-mode:normal;shape-padding:0;text-decoration-color:#000000;text-decoration-line:none;text-decoration-style:solid;text-indent:0;text-orientation:mixed;text-transform:none" white-space="normal"/>
</svg>
